X:1
T:Papillion, 98.98 D
T:Papillion, 98.98 D
T:Albert Caswell Neece, 1904
T:Public Domain Courtesy of the Cyber Hymnal™
C:Albert Caswell Neece, 1904
Z:Public Domain
Z:Courtesy of the Cyber Hymnal™
%%score ( 1 2 ) ( 3 4 )
L:1/8
Q:1/4=85
M:6/8
K:G
V:1 treble 
V:2 treble 
V:3 bass 
V:4 bass 
V:1
 [Gd]>[G^c][Gd] [GB]2 [DG] | [EA]>[EG][CE] [B,D]2 [B,D] | [DG]>[DG][DG] [GB]>[FA]G | [Fd]6 | %4
 [Gd]>[G^c][Gd] [GB]2 [DG] | [EA]>[EG][CE] [EG]2 [Ge] | [Gd]>[GB][DG] [FA][FB][FA] | G6 | %8
 [Ec]>[Ec][Ec] [Ge]2 [Ge] | [Gd]>[Gd][GB] [Gd]2 [GB] | [FA]>[FA][Fd] [G^c]>[Gc][Ge] | [Fd]6 | %12
 [Gd]>[G^c][Gd] [GB]2 [DG] | [EA]>[EG][CE] [EG]2 [Ge] | [Gd]>[GB]G [FA][FB][FA] | [DG]6 |] %16
V:2
 x6 | x6 | x5 G | x6 | x6 | x6 | x6 | G6 | x6 | x6 | x6 | x6 | x6 | x6 | x2 G x3 | x6 |] %16
V:3
 [G,B,]>[G,^A,][G,B,] [G,D]2 [B,,G,] | [C,G,]>[C,G,][C,G,] [G,,G,]2 [G,,G,] | %2
 [G,B,]>[G,B,][G,B,] D>C[G,B,] | [D,A,]6 | [G,B,]>[G,^A,][G,B,] [G,D]2 [B,,G,] | %5
 [C,G,]>[C,G,][C,G,] [C,C]2 [C,C] | [D,B,]>[D,D][D,B,] [D,C][D,D][D,C] | [G,,B,]6 | %8
 [C,G,]>[C,G,][C,G,] [C,C]2 [C,C] | [G,B,]>[G,B,][G,D] [G,B,]2 [G,D] | %10
 [A,D]>[A,D][A,D] [A,E]>[A,E][A,^C] | [D,D]6 | [G,B,]>[G,^A,][G,B,] [G,D]2 [B,,G,] | %13
 [C,G,]>[C,G,][C,G,] [C,C]2 [C,C] | [D,B,]>[D,D][D,B,] [D,C][D,D][D,C] | [G,,B,]6 |] %16
V:4
 x6 | x6 | x3 G,2 x | x6 | x6 | x6 | x6 | x6 | x6 | x6 | x6 | x6 | x6 | x6 | x6 | x6 |] %16

